X:665
T: Pooka's Delight
C: BB
R: reel
Q: 1/8=350
M: 4/4
L: 1/8
K: Dmix
"A7"A,^CEG "D"FD (3DED|"F"cA (3ABA "G"BG (3GFG|"G"DGdG "Dm7"D=FcF|\
"G7"BG=FD "Cm7"_EDC_B,|
"A7"A,^CEG "D"FD (3DED|"F"cA (3ABA "G"BG (3GFG|"G"DGdG "Ddim"D=F_AB|\
"A7"AGE^C "D"D4 :|
"D"DE^FA d3 A|^f3 e d^c A2|"C"c2 Gc EcGc|"A"^c2 Gc EcGc|
"D"d^cde f2 dA|"G7"BG=FD "Cm7"_EDC_B,|"A"A,^CEG "D"FAdB|"A7"AGE^C "D"D4 :|

%%%%%%%%%%%%%%%%%%%%%%%%%%%%%%%%%%%%%%%%%%%

